X:1
T:Universal Praise
T:Universal Praise
T:Walter Grenville Whinfield (1865-1919)
T:Public Domain Courtesy of the Cyber Hymnal™
C:Walter Grenville Whinfield (1865-1919)
Z:Public Domain
Z:Courtesy of the Cyber Hymnal™
%%score ( 1 2 ) ( 3 4 )
L:1/8
Q:1/4=115
M:4/4
K:D
V:1 treble 
V:2 treble 
V:3 bass 
V:4 bass 
V:1
 D2 | D3 E F2 [DG]2 | [EA]6 [FA]2 | [GB]2 [Gc]2 [Fd]2 [DF]2 | [CE]4 [EA]4 | [FA]4 ^G4 | %6
 [CA]6 [CE]2 | [CE]2 [DF]2 [DG]2 [EA]2 | [A,F]6 [FA]2 | [FA]2 [GB]2 [G=c]2 [Fd]2 | [GB]6 [GB]2 | %11
 [GB]2 [FA]2 [EG]2 [^DF]2 | G4 E4 | A3 z G [DF]2 [CE]2 | D6 D2 | D3 E F2 G2 | A6 A2 | %17
 [AB]2 cd e3 z x | [Ac]4 d4 | d4 z2 x6 | [Fd]6 |] %21
V:2
 D2 | D6 x2 | x8 | x8 | x8 | x4 E2 D2 | x8 | x8 | x8 | x8 | x8 | x8 | E2 D2 D2 C2 | D2 D2 x5 | %14
 D6 D2 | D3 E F2 G2 | A6 A2 | x2 A2 A2 (^G2 d) | x4 G2 GF | E6 (c4 G2) | x6 |] %21
V:3
 [D,F,]2 | F,3 G, A,2 [B,,D]2 | (D2 CB, C2) [D,D]2 | [G,D]2 [E,G,]2 [D,A,]2 [F,A,]2 | %4
 A,4 (A,2 E2) | (E2 DC) [E,B,]4 | [A,,A,]6 A,2 | [G,A,]2 [F,A,]2 [E,B,]2 [A,,C]2 | [D,D]6 [D,D]2 | %9
 [=CD]2 [B,D]2 [B,E]2 (DC) | [G,D]4 [G,,D]4 | [A,,=C]2 [A,,C]2 [B,,B,]2 [B,,B,]2 | %12
 [E,B,]4 [G,A,]4 | [F,A,]2 [B,D]2 A,2 [A,,G,]2 x | [D,F,]6 D,2 | D,3 E, F,2 G,2 | %16
 (A,3 B, C2) ([B,D][CE]) | [DF]2 [CE]2 [B,D]2 [E,E]2 x | E4 [F,A,]2 [G,B,]2 | (E2 A,2 z2) A,2 x4 | %20
 [D,A,]6 |] %21
V:4
 x2 | D,6 x2 | A,,6 x2 | x8 | A,4 C,4 | D,4 x4 | x6 A,2 | x8 | x8 | x6 A,2 | x8 | x8 | x8 | %13
 x4 A,2 x3 | x6 D,2 | D,3 E, F,2 G,2 | A,6 x2 | x9 | (A,2 G,2) x4 | A,4 A,,4 x4 | x6 |] %21

